Sources/FrostedUI/Resources/Icons.xcassets/reply32.imageset/reply-32.svg

<svg width="32" height="32" viewBox="0 0 32 32" fill="none" xmlns="http://www.w3.org/2000/svg" data-fui-icon="true">
  <path
    d="M13.3871 4.77179C14.2992 3.95373 15.7501 4.60137 15.7504 5.82648V10.5911C21.0658 10.6843 24.7021 11.7916 26.9838 14.4241C29.3442 17.1477 30.0833 21.3174 30.0834 26.9993C30.0833 27.347 29.8436 27.6489 29.5052 27.7288C29.1668 27.8086 28.818 27.6453 28.6625 27.3343L29.3334 26.9993H29.3324L28.6625 27.3343C27.6458 25.301 26.9837 23.9389 25.2972 22.9857C23.6416 22.0499 20.9137 21.4708 15.7504 21.4202V26.1712C15.7504 27.3966 14.2993 28.0446 13.3871 27.2259L2.05212 17.053C1.42513 16.4901 1.42466 15.5075 2.05212 14.9446L13.3871 4.77179ZM3.12244 15.9984L14.2504 25.9847V20.6653C14.2508 20.2515 14.5864 19.9153 15.0004 19.9153C20.6801 19.9154 23.9364 20.4935 26.0355 21.68C27.1318 22.2996 27.8861 23.0739 28.4935 23.9446C28.243 19.9852 27.442 17.2435 25.85 15.4066C23.9041 13.1616 20.6072 12.0824 15.0004 12.0823C14.5862 12.0823 14.2504 11.7466 14.2504 11.3323V6.013L3.12244 15.9984Z"
    fill="currentColor"
  />
</svg>

<svg xmlns="http://www.w3.org/2000/svg" width="32" height="32" fill="none" data-fui-icon="true" viewBox="0 0 32 32"><path fill="currentColor" d="M13.387 4.772c.912-.818 2.363-.17 2.363 1.054v4.765c5.316.093 8.952 1.2 11.234 3.833 2.36 2.724 3.1 6.893 3.1 12.575a.75.75 0 0 1-1.421.335l.67-.335-.67.335c-1.017-2.033-1.68-3.395-3.366-4.348-1.655-.936-4.383-1.515-9.547-1.566v4.751c0 1.226-1.45 1.874-2.363 1.055L2.052 17.053a1.416 1.416 0 0 1 0-2.108zM3.122 15.998l11.128 9.987v-5.32a.75.75 0 0 1 .75-.75c5.68 0 8.936.579 11.035 1.765 1.097.62 1.851 1.394 2.459 2.265-.251-3.96-1.052-6.701-2.644-8.538-1.946-2.245-5.243-3.325-10.85-3.325a.75.75 0 0 1-.75-.75V6.013z"/></svg>
